X: 1
T: The Humours Of Carrigaholt
R: reel
M: 4/4
L: 1/8
K: Dmaj
| dcAF GBAG | F2 DE FGAB | =cBAF G2 FG | Addc dgfe |
dcAF GBAG | F2 DE FGAB | =cBAF G2 FG | Addc d4 |
fdde fdgf | edcd efge | fd d2 fdgf | edcd e3 g |
fdde fdgf | edcd efge | agfa gfec | dfec d4 |


Tune 1730	Setting 22867

